X: 37937
T: Spaghetti Panic
R: mazurka
M: 3/4
K: Eminor
BeB fBgB|gfe f^dB=d|e2c BAGA|AFD BAGA|BeB fBgB|gfe f^dB=d|e2c BAGA|AGF E4:|
EFG B4|ABc BFD2|e2c BAGA|AAG F4|EFG B4|ABc BFD2|e2c BAGA|AGF E4:|

